src/assets/404.svg

<svg height="74" viewBox="0 0 98 74" width="98" xmlns="http://www.w3.org/2000/svg"><g fill="#fff"><path d="m83.898.898h-69.797c-7.6016 0-13.801 6.8984-13.801 15.301v42.398c0 8.3984 6.1992 15.301 13.801 15.301h69.699c7.6016 0 13.801-6.8984 13.801-15.301v-42.398c.097657-8.5-6.1016-15.301-13.703-15.301zm-69.797 5.4023h69.699c4.6016 0 8.3984 4.3984 8.3984 9.8984v2.5h-86.398v-2.5c0-5.5 3.6992-9.8984 8.3008-9.8984zm69.797 62.098h-69.797c-4.6016 0-8.3984-4.3984-8.3984-9.8984l-.003906-34.301h86.5v34.398c0 5.4023-3.6992 9.8008-8.3008 9.8008z"/><path d="m62.5 12.398c0 4.5352-6.8008 4.5352-6.8008 0 0-4.5312 6.8008-4.5312 6.8008 0"/><path d="m73 12.398c0 4.5352-6.8008 4.5352-6.8008 0 0-4.5312 6.8008-4.5312 6.8008 0"/><path d="m84.102 12.398c0 4.5352-6.8008 4.5352-6.8008 0 0-4.5312 6.8008-4.5312 6.8008 0"/><path d="m43.801 35-3.1992 3.1992-3.1016-3.1992-2.6016 2.6992 3.1016 3.1016-3.1016 3.0977 2.6016 2.7031 3.1016-3.2031 3.1992 3.2031 2.5977-2.7031-3.1992-3.0977 3.1992-3.1016z"/><path d="m63.102 37.699-2.6016-2.6992-3.1016 3.1992-3.1992-3.1992-2.5977 2.6992 3.1992 3.1016-3.1992 3.0977 2.5977 2.7031 3.1992-3.2031 3.1016 3.2031 2.6016-2.7031-3.1016-3.0977z"/><path d="m35.699 53.102h26.5v3.6992h-26.5z"/></g></svg>

<?xml version="1.0" encoding="UTF-8"?>
<svg width="98px" height="74px" viewBox="0 0 98 74" version="1.1" xmlns="http://www.w3.org/2000/svg" xmlns:xlink="http://www.w3.org/1999/xlink">
    <!-- Generator: Sketch 50 (54983) - http://www.bohemiancoding.com/sketch -->
    <title>404</title>
    <desc>Created with Sketch.</desc>
    <defs></defs>
    <g id="Welcome" stroke="none" stroke-width="1" fill="none" fill-rule="evenodd">
        <g id="404-page" transform="translate(-753.000000, -183.000000)" fill="#FFFFFF" fill-rule="nonzero">
            <g id="#1---Home" transform="translate(541.000000, 183.000000)">
                <g id="404" transform="translate(212.000000, 0.000000)">
                    <path d="M83.898,0.898 L14.101,0.898 C6.4994,0.898 0.3,7.7964 0.3,16.199 L0.3,58.597 C0.3,66.9954 6.4992,73.898 14.101,73.898 L83.8,73.898 C91.4016,73.898 97.601,66.9996 97.601,58.597 L97.601,16.199 C97.698657,7.699 91.4994,0.898 83.898,0.898 Z M14.101,6.3003 L83.8,6.3003 C88.4016,6.3003 92.1984,10.6987 92.1984,16.1987 L92.1984,18.6987 L5.8004,18.6987 L5.8004,16.1987 C5.8004,10.6987 9.4996,6.3003 14.1012,6.3003 L14.101,6.3003 Z M83.898,68.3983 L14.101,68.3983 C9.4994,68.3983 5.7026,63.9999 5.7026,58.4999 L5.698694,24.1989 L92.198694,24.1989 L92.198694,58.5969 C92.198694,63.9992 88.499494,68.3977 83.897894,68.3977 L83.898,68.3983 Z" id="Shape"></path>
                    <path d="M62.5,12.398 C62.5,16.9332 55.6992,16.9332 55.6992,12.398 C55.6992,7.8668 62.5,7.8668 62.5,12.398" id="Shape"></path>
                    <path d="M73,12.398 C73,16.9332 66.1992,16.9332 66.1992,12.398 C66.1992,7.8668 73,7.8668 73,12.398" id="Shape"></path>
                    <path d="M84.102,12.398 C84.102,16.9332 77.3012,16.9332 77.3012,12.398 C77.3012,7.8668 84.102,7.8668 84.102,12.398" id="Shape"></path>
                    <polygon id="Shape" points="43.801 35 40.6018 38.1992 37.5002 35 34.8986 37.6992 38.0002 40.8008 34.8986 43.8985 37.5002 46.6016 40.6018 43.3985 43.801 46.6016 46.3987 43.8985 43.1995 40.8008 46.3987 37.6992"></polygon>
                    <polygon id="Shape" points="63.102 37.699 60.5004 34.9998 57.3988 38.199 54.1996 34.9998 51.6019 37.699 54.8011 40.8006 51.6019 43.8983 54.1996 46.6014 57.3988 43.3983 60.5004 46.6014 63.102 43.8983 60.0004 40.8006"></polygon>
                    <polygon id="Shape" points="35.699 53.102 62.199 53.102 62.199 56.8012 35.699 56.8012"></polygon>
                </g>
            </g>
        </g>
    </g>
</svg>
